X:1
T:James Gibb editions
T:Adoramus te, Christe - Palestrina
T:#
%%score [ 1 2 3 4 ]
L:1/8
Q:1/4=108
M:4/4
K:C
V:1 treble nm="Soprano" snm="S"
V:2 treble nm="Alto" snm="A"
V:3 treble-8 nm="Tenor" snm="T"
V:4 bass nm="Bass" snm="B"
V:1
!pp!"^Adagio""^Adoramus te, Christe""^G. P. da Palestrina (attrib.)\n(1526-94)" A8 | ^G8 | A8 | %3
w: A-|do-|ra-|
 B8 |"^," c8 | A8 | ^G8 | z8 |!p! c8 | B4 A4- | A4 G4- | G2 G2"^," G4 | G8 | G4 z4 | c4 c2 c2 | %15
w: mus|te,|Chri-|ste,||et|be- ne\-|* di\-|* ci- mus|ti-|bi,|qui- a per|
 c4 B4 | B4 A4 | (A4 ^G4) |"^," ^G4 A4- | A2 A2 !>!A4 | G4 ((F4- | F4 E4)) | E4 z2!pp! ^G2 | %23
w: sanc- tam|cru- cem|tu\- *|am re\-|* de- mi-|sti mun\-||dum, qui|
 ^G2 G2"^," A4 | (B4 c4) | d4"^," G4 | z2 c4 B2 |"^," B8 | A6 ^F2 |"^," ^F4 (G4- | G2 F2) E2 D2 | %31
w: pas- sus es|pro *|no- bis,|Do- mi-|ne,|Do- mi-|ne, mi\-|* * re- re|
[M:3/2] E4 E8 |] %32
w: no- bis!|
V:2
!pp! E8 | E8 | (C4 D4) | B,8 |"^," E8 | (E2 DC D4) | E8 | z8 |!p! E8 | (D2 G2) E4- | E4 E4- | %11
w: A-|do-|ra\- *|mus|te,|Chri\- * * *|ste,||et|be\- * ne\-|* di\-|
 E2 E2"^," E4 | (E2 DC D4) | E4 z4 | A4 A2 A2 | A4 G4 | G4 E4 | E8 |"^," E4 E4- | E2 E2 F4 | %20
w: * ci- mus|ti\- * * *|bi,|qui- a per|sanc- tam|cru- cem|tu-|am re\-|* de- mi-|
 E4 (A,4 | D2 A2- A4) | ^G4 z2!pp! E2 | E2 E2 (E2"^," ^F2) | G8 | F4"^," D4 | E4 D4 |"^," G8 | %28
w: sti mun\-||dum, qui|pas- sus es *|pro|no- bis,|Do- mi-|ne,|
 (E4 ^F2) D2 |"^," D4 B,4 | D4 C2 A,2 |[M:3/2] B,4 ^C8 |] %32
w: Do\- * mi-|ne, mi-|se- re- re|no- bis!|
V:3
!pp! c8 | B8 | A8 | ^G8 |"^," A8 | A8 | B8 | z8 |!p! G8 | B4 c4- | c4 (B4 | c2) c2"^," c4 | %12
w: A-|do-|ra-|mus|te,|Chri-|ste,||et|be- ne\-|* di\-|* ci- mus|
 (c6 B2) | c4 z4 | c4 f2 f2 | e4 e4 | d4 c4 | (c4 B4) |"^," B4 c4- | c2 c2 d4- | d2 ^c2 (d4 | %21
w: ti\- *|bi,|qui- a per|sanc- tam|cru- cem|tu\- *|am re\-|* de- mi\-|* sti mun\-|
 A4 c4) | B4 z2!pp! B2 | B2 B2"^," c4 | (d4 e4) | A4"^," B4 | G6 B2 |"^," d8 | c4 A4 | %29
w: |dum, qui|pas- sus es|pro *|no- bis,|Do- mi-|ne,|Do- mi-|
"^," A4 G2 G2 | A4 (G2 A2) |[M:3/2] (A2 ^G2) A8 |] %32
w: ne, mi- se-|re- re *|no\- * bis!|
V:4
!pp! A,8 | E,8 | F,8 | E,8 |"^," A,,8 | F,8 | E,8 | z8 |!p! C,8 | G,4 A,4- | A,4 (E,4 | %11
w: A-|do-|ra-|mus|te,|Chri-|ste,||et|be- ne\-|* di\-|
 C,2) C,2"^," C,4 | G,8 | C,4 z4 | F,4 F,2 F,2 | A,4 E,4 | G,4 A,4 | E,8 |"^," E,4 A,4- | %19
w: * ci- mus|ti-|bi,|qui- a per|sanc- tam|cru- cem|tu-|am re\-|
 A,2 A,2 D,4 | E,4 (D,4- | D,4 A,4) | E,4 z2!pp! E,2 | E,2 E,2"^," A,4 | (G,4 E,4) | F,4"^," G,4 | %26
w: * de- mi-|sti mun\-||dum, qui|pas- sus es|pro *|no- bis,|
 C,4 G,4 |"^," G,8 | A,4 D,4 |"^," D,4 E,2 E,2 | D,4 (E,2 F,2) |[M:3/2] E,4 A,,8 |] %32
w: Do- mi-|ne,|Do- mi-|ne, mi- se-|re- re *|no- bis!|

